X:6853
T:Hartigan's Fancy
M:6/8
L:1/8
K:G Major
D|B3 GBd|cBc ABc|B3 GBd|cAG FGA|!
B3 GBd|cBc ABc|ded cAF|AGG G2:|!
d|f3 fed|cAG FGA|g3 gfg|afd d2g|!
fag fed|cAG FGA|BdB cAF|AGG G2:|!
